!!!COM: Franz Schubert
!!!CNT: Deutsch
!!!TXO: Deutsch
!!!OTL: "Der Wanderer"
!!!LYR: Georg Phillipp Schmidt (von Lu2beck)
!!!OPS: Op. 4
!!!ONM: No. 1
!!!ENC: Ben Fuhrman
!!!YOR: Schubert Lieder - Dietrich Fischer-Dieskau, and Elmar Budde, eds.
!!!YOR: New York: C. F. Peters, Vol. 2
!!!ODT: 1816/
!!NB: Only vocal melody encoded.
!!NB: First instance of melodic material only encoded.
**kern
*clef G2
*k[f#c#g#d#]
*M2/2
!!created: 08/02/06 5:30
!!proofed and posted: 08/02/06 5:30
!!edit time: 30 minutes
=7
8.r
{16c#
8.c#
16d#
8.e#
16f#
8.g#
16a
=8
(qg#
2f#)}
2r
=9
4r
8r
{8f#
4.f#
8f#
=10
2.b}
4r
=11
4r
8r
{8b
4.b
8e#
=12
2f#}
4r
{4f#
=13
2.g#
4g#
=14
2c#}
2r
!! rest to measure 16
=16
4r
{4b
8cc#
8b
8g#
8e
=17
4.a
8a#
4.b
8f#
=18
2g#}
2r
=19
4r
{4f#
4.b
8a
=20
4.g#
8g#
[4ee
12ee]
12dd#
12cc#
=21
2dd#}
{[4dd#
12dd#]
12ee
12dd#
=22
2.dd#}
8r
{8g#
=23
4.g#
8g#
8.g#
32b
32a
4g#
=24
4e
(qg#
12f#)
12e
12f#
4.g#}
{8g#
=25
(4g#
(qa
12g#)
12f#)
12g#
(4b
8a)
8f#
=26
(8e
4g#)
8g#
4.c#}
{8g#
=27
4.g#
8g#
8.g#
32b
32a
4g#
=28
(4e
(qg#
12f#)
12e)
12f#
4.g#}
{8g#
=29
4.g#
8g#
(4cc#
8a)
8f#
=30
4.b
8d#
4e}
4r
=31
2r
4r
8r
{8b
=32
2b
4g#
8r
8ee
=33
2ee
4cc#}
4r
=34
{4.b
(qdd#
8cc#)
4.b
8f#
=35
2g#}
4r
8r
{8b
=36
(2b
4g#)
8r
8ee
=37
(2ee
4cc#)}
4r
=38
2r
{2ee
=39
[1b
=40
2.b]
4d#
=41
*M6/8
4e}
4r
8r
{8g#
=42
4g#
8a
4b
8cc#
=43
8cc#
8b
8a
4g#}
8r
=44
4r
8r
4r
{8ee
=45
8ee
8dd#
8cc#
4b
8b
=46
4cc#}
{8f#
4f#
8f#
=47
4b
8g#
4e}
{8b
=48
4b
8b
(qcc#
8b)
8a#
8b
=49
4cc#
8b
4g#}
{8cc#
=50
4cc#
8cc#
(qddn
8cc#)
8b#
8cc#
=51
4ddn
8cc#
4a}
{8ee
=52
4ee
8ee
4ee
8ddn
=53
8ddn
8ccn
8b
4a}
{8a
=54
[4.a
8a]
8g#
8a
=55
*M2/2
(qccn
8b)
8b}
4r
2r
!! rest to measure 58
=58
4r
{4b
8cc#
8b
8g#
8e
=59
4.a
8a#
4.b
8f#
=60
2g#}
2r
=61
4r
{4f#
4.b
8a
=62
4.g#
8g#
[4ee
12ee]
12dd#
12cc#
=63
2dd#}
{[4dd#
12dd#]
12ee
12dd#
=64
2.dd#}
8r
{8d#
=65
4.e
8d#
4c#
4B
=66
4A
4G#
2c#}
=67
{2f#
4d#
4B
=68
4f#
4e}
4r
{8.gn
16A#
=69
2.B
4B
=70
2e}
2r
==
*-
